svgs/thin/sidebar.svg

<svg xmlns="http://www.w3.org/2000/svg" viewBox="0 0 512 512"><!-- Font Awesome Pro 6.0.0-alpha2 by @fontawesome - https://fontawesome.com License - https://fontawesome.com/license (Commercial License) --><path d="M144 192H64C59.578 192 56 195.594 56 200S59.578 208 64 208H144C148.422 208 152 204.406 152 200S148.422 192 144 192ZM144 256H64C59.578 256 56 259.594 56 264S59.578 272 64 272H144C148.422 272 152 268.406 152 264S148.422 256 144 256ZM56 136C56 140.406 59.578 144 64 144H144C148.422 144 152 140.406 152 136S148.422 128 144 128H64C59.578 128 56 131.594 56 136ZM448 32H64C28.654 32 0 60.654 0 96V416C0 451.346 28.654 480 64 480H448C483.346 480 512 451.346 512 416V96C512 60.654 483.346 32 448 32ZM192 464H64C37.533 464 16 442.467 16 416V96C16 69.533 37.533 48 64 48H192V464ZM496 416C496 442.467 474.467 464 448 464H208V48H448C474.467 48 496 69.533 496 96V416Z"/></svg>

<svg xmlns="http://www.w3.org/2000/svg" viewBox="0 0 512 512"><!--! Font Awesome Pro 6.0.0-alpha3 by @fontawesome - https://fontawesome.com License - https://fontawesome.com/license (Commercial License) --><path d="M144 192H64C59.58 192 56 195.6 56 200S59.58 208 64 208h80c4.422 0 8-3.594 8-8S148.4 192 144 192zM144 256H64C59.58 256 56 259.6 56 264S59.58 272 64 272h80c4.422 0 8-3.594 8-8S148.4 256 144 256zM56 136C56 140.4 59.58 144 64 144h80c4.422 0 8-3.594 8-8S148.4 128 144 128H64C59.58 128 56 131.6 56 136zM448 32H64C28.65 32 0 60.65 0 96v320c0 35.35 28.65 64 64 64h384c35.35 0 64-28.65 64-64V96C512 60.65 483.3 32 448 32zM192 464H64c-26.47 0-48-21.53-48-48V96c0-26.47 21.53-48 48-48h128V464zM496 416c0 26.47-21.53 48-48 48H208v-416H448c26.47 0 48 21.53 48 48V416z"/></svg>
